!!!!SEGMENT: Ric2006-Philomena_praevia.krn
!!!id: Ric2006
!!!AGN: Motet
!!!SCT: Elzinga (1999)
!!!voices: 4
!!!COM: Jean Richafort
!!!OTL: Philomena praevia
**kern	**kern	**kern	**kern
*part4	*part3	*part2	*part1
*staff4	*staff3	*staff2	*staff1
*I"Bassus	*I"Tenor	*I"Altus	*I"Superius
*I'B	*I'T	*I'A	*I'S
*clefF4	*clefGv2	*clefG2	*clefG2
*k[]	*k[]	*k[]	*k[]
*C:	*C:	*C:	*C:
*M2/1	*M2/1	*M2/1	*M2/1
*met(C|)	*met(C|)	*met(C|)	*met(C|)
!!section: Prima pars: Philomena praevia
!!!OMD: Prima pars: Philomena praevia
=1	=1	=1	=1
1.G	1r	0r	0r
.	[1d	.	.
2G	.	.	.
=2	=2	=2	=2
2F	2d]	0r	0r
2D	2d	.	.
2.F	2c	.	.
.	2A	.	.
4G	.	.	.
=3	=3	=3	=3
1A	2.c	0r	0r
.	4d	.	.
2.A	4e	.	.
.	4c	.	.
.	2f	.	.
4B	.	.	.
=4	=4	=4	=4
4c	2e	1.g	0r
4A	.	.	.
1d	2d	.	.
.	1e	.	.
2c#i	.	2g	.
=5	=5	=5	=5
1d	2d	2f	1r
.	2.f	2d	.
1D	.	1f	2r
.	4e	.	.
.	4d	.	[2dd
.	4c	.	.
=6	=6	=6	=6
0r	1B	1g	2dd]
.	.	.	2dd
.	[1A	2a	2cc
.	.	[2cc	2a
=7	=7	=7	=7
0r	1A]	4cc]	1cc
.	.	4b	.
.	.	1a	.
.	1r	.	1b
.	.	2g	.
=8	=8	=8	=8
0r	0r	2.f	1a
.	.	8eL	.
.	.	8dJ	.
.	.	2c	2r
.	.	2d	2a
=9	=9	=9	=9
0r	0r	2A	2a
.	.	2a	2a
.	.	2a	4d
.	.	.	4e
.	.	2a	4f
.	.	.	4g
=10	=10	=10	=10
0r	2r	4d	4a
.	.	4e	4b
.	2A	4f	2cc
.	.	4d	.
.	2A	2e	2r
.	2A	[2f	[2a
=11	=11	=11	=11
1r	4D	2f]	4a]
.	4E	.	4g
.	4F	4e	2f
.	4G	4d	.
2r	4A	1c	1e
.	4B	.	.
2A	4c	.	.
.	4d	.	.
=12	=12	=12	=12
2A	2e	0r	0r
2A	2.f	.	.
2D	.	.	.
.	4e	.	.
[2G	4d	.	.
.	4c	.	.
=13	=13	=13	=13
4G]	4B	1.g	0r
4F	4A	.	.
4E	1d	.	.
4D	.	.	.
1E	.	.	.
.	2c#i	2g	.
=14	=14	=14	=14
0D	0d	2f	1r
.	.	2d	.
.	.	1f	[1dd
=15	=15	=15	=15
0r	0r	1g	2dd]
.	.	.	2dd
.	.	2a	2cc
.	.	[2cc	2a
=16	=16	=16	=16
0r	0r	4cc]	1cc
.	.	4b	.
.	.	1a	.
.	.	.	1b
.	.	2g#i	.
=17	=17	=17	=17
0r	2r	1a	0a
.	2d	.	.
.	2d	2r	.
.	2d	2d	.
=18	=18	=18	=18
0r	1f	2d	2r
.	.	2d	2a
.	2d	2.f	2a
.	[2f	.	2a
.	.	4g	.
=19	=19	=19	=19
1r	2f]	4a	2.cc
.	.	4b	.
.	4e	2.cc	.
.	4d	.	4dd
2r	2c	.	2ee
.	.	4b	.
2D	2d	4a	[2ff
.	.	4g	.
=20	=20	=20	=20
2D	2A	1a	4ff]
.	.	.	4ee
2D	2.f	.	2dd
2.F	.	[1a	2cc
.	4e	.	.
.	2d	.	2ff
4G	.	.	.
=21	=21	=21	=21
2A	2c	2a]	4ee
.	.	.	4dd
2B	2d	2g	1dd
1A	1e	[1a	.
.	.	.	2cc#i
=22	=22	=22	=22
2r	1d	1a]	2.dd
1d	.	.	.
.	.	.	4cc
.	1r	2r	2a
2d	.	2d	[2b
=23	=23	=23	=23
2c	1r	2e	4b]
.	.	.	4a
2A	.	1f	1a
2B	1d	.	.
2B	.	4e	2g#i
.	.	4d	.
=24	=24	=24	=24
0A	2e	2c	1a
.	1f	2cc	.
.	.	2a	1r
.	4e	[2cc	.
.	4d	.	.
=25	=25	=25	=25
0r	2c	4cc]	2r
.	.	4b	.
.	1d	4a	2a
.	.	4g	.
.	.	2f	2b
.	4c	4e	[2cc
.	4B	4d	.
=26	=26	=26	=26
0r	2A	2e	4cc]
.	.	.	4b
.	2.d	2f	4a
.	.	.	4g
.	.	1d	4f
.	4c	.	4e
.	[2f	.	[2a
=27	=27	=27	=27
0r	2f]	2r	2a]
.	4e	1g	4g
.	4d	.	4f
.	1c	.	4e
.	.	.	4d
.	.	2g	2e
=28	=28	=28	=28
0r	2r	2f	4d
.	.	.	4e
.	1d	2d	4f
.	.	.	4g
.	.	2f	4a
.	.	.	4g
.	2c	2g	4a
.	.	.	4b
=29	=29	=29	=29
0r	2A	1a	4cc
.	.	.	4dd
.	2c	.	2.ee
.	1B	1d	.
.	.	.	4dd
.	.	.	2dd
=30	=30	=30	=30
2r	2A	2.a	2cc
1d	4D	.	2.ff
.	4E	4g	.
.	4F	4a	.
.	4G	4b	4ee
2c	4A	[2cc	[2ee
.	4B	.	.
=31	=31	=31	=31
2A	4c	4cc]	2ee]
.	4d	4b	.
2c	1e	1a	4dd
.	.	.	4cc
2B	.	.	1dd
2B	2d	2g#i	.
=32	=32	=32	=32
0A	1e	[0a	[0cc
.	2r	.	.
.	2c	.	.
=33	=33	=33	=33
2r	1f	0a]	0cc]
2F	.	.	.
2F	2f	.	.
2F	2f	.	.
=34	=34	=34	=34
2G	1e	2r	2r
2.A	.	2a	2cc
.	2c	2a	2cc
4G	.	.	.
4F	[2f	2a	2cc
4E	.	.	.
=35	=35	=35	=35
2D	4f]	1a	1dd
.	4e	.	.
2F	1d	.	.
1E	.	1g	1ee
.	2c#i	.	.
=36	=36	=36	=36
1D	2.d	2f	2.ff
.	.	2.a	.
.	4B	.	4dd
1r	2c	.	2ee
.	.	4g	.
.	[2d	4f	[2ff
.	.	4e	.
=37	=37	=37	=37
0r	4d]	2d	4ff]
.	4c	.	4ee
.	4B	2f	1dd
.	4A	.	.
.	2G	1e	.
.	2A	.	2cc#i
=38	=38	=38	=38
0r	2D	1d	1dd
.	1d	.	.
.	.	2r	1ee
.	2c#i	[2a	.
=39	=39	=39	=39
2r	1d	2a]	0dd
1d	.	2a	.
.	1G	1b	.
2d	.	.	.
=40	=40	=40	=40
1e	0r	2g	0r
.	.	2.cc	.
2c	.	.	.
.	.	4b	.
[2d	.	4a	.
.	.	4g	.
=41	=41	=41	=41
4d]	2r	4f	2r
4c	.	4e	.
4B	1d	1a	1dd
4A	.	.	.
2B	.	.	.
2B	2d	2g#i	2dd
=42	=42	=42	=42
1A	1e	1a	2.cc
.	.	.	8bL
.	.	.	8aJ
1r	2c	1r	2cc
.	[2d	.	[2b
=43	=43	=43	=43
0r	4d]	2r	4b]
.	4c	.	4a
.	4B	2d	1a
.	4A	.	.
.	2B	2d	.
.	2B	2d	2g#i
=44	=44	=44	=44
0r	2A	2c	0a
.	4D	2d	.
.	4E	.	.
.	4F	2A	.
.	4G	.	.
.	4A	[2cc	.
.	4B	.	.
=45	=45	=45	=45
2r	2c	4cc]	0r
.	.	4b	.
2d	2d	1a	.
2d	1B	.	.
2d	.	2g#i	.
=46	=46	=46	=46
2c	2A	[0al	2r
2d	2d	.	2f
1A	2d	.	2f
.	2c#i	.	2e
=47	=47	=47	=47
2r	2d	0a_	2f
2d	2.f	.	4d
.	.	.	4e
2d	.	.	4f
.	4e	.	4g
2d	4f	.	4a
.	4d	.	4b
=48	=48	=48	=48
1c	2e	0a_	4cc
.	.	.	4dd
.	2c	.	2.ee
1d	[1f	.	.
.	.	.	4dd
.	.	.	[2dd
=49	=49	=49	=49
0A	2f]	0a_	2dd]
.	4e	.	4cc
.	4d	.	4b
.	1e	.	2cc
.	.	.	4dd
.	.	.	4cc
=50	=50	=50	=50
0D	2r	0a_	2dd
.	2d	.	2ff
.	2d	.	2ff
.	2d	.	2ff
=51	=51	=51	=51
1r	1c	0a_	1ee
1D	1d	.	1dd
=	=	=	=
00A	00A	00a]	00cc
=||	=||	=||	=||
*M2/1	*M2/1	*M2/1	*M2/1
*met(C|)	*met(C|)	*met(C|)	*met(C|)
!!section: Secunda pars: Veni, veni
!!!OMD: Secunda pars: Veni, veni
!	!	!	!LO:TX:a:t=Secunda Pars&colon; Veni, veni
1A	0r	1r	0r
2.c	.	1A	.
4B	.	.	.
=52	=52	=52	=52
4A	0r	2.c	0r
4G	.	.	.
2.A	.	.	.
.	.	4d	.
.	.	2e	.
4G	.	.	.
4F	.	[2f	.
4E	.	.	.
=53	=53	=53	=53
4D	1A	2f]	0r
4C	.	.	.
2.c	.	4e	.
.	.	4d	.
.	2.c	2.e	.
4B	.	.	.
2A	.	.	.
.	4d	4f	.
=54	=54	=54	=54
2G	2e	2g	0r
2F	1f	1a	.
1B-i	.	.	.
.	4e	2g	.
.	4d	.	.
=55	=55	=55	=55
0A	2f	1a	1r
.	2.e	.	.
.	.	2r	1a
.	4d	.	.
.	4c	[2cc	.
.	4B	.	.
=56	=56	=56	=56
0r	2.A	4cc]	2.cc
.	.	4b	.
.	.	2a	.
.	4B	.	4dd
.	2c	2g	2ee
.	[2d	2f	[2ff
=57	=57	=57	=57
0r	2d]	1b-i	2ff]
.	4c	.	4ee
.	4B	.	4dd
.	2d	[1a	2ff
.	4c	.	2ee
.	4B	.	.
=58	=58	=58	=58
1r	2A	2.a]	2.cc
.	4F	.	.
.	4G	8gL	4b
.	.	8fJ	.
2r	4A	4e	2a
.	4B	4d	.
[2c	4c	4e	2g
.	4d	4f	.
=59	=59	=59	=59
4c]	2e	4g	1cc
4B	.	4e	.
2A	2c	2f	.
2G	2d	2g	2b
2F	[2f	2c	[2a
=60	=60	=60	=60
1B-i	2f]	4d	2a]
.	.	4c	.
.	4e	4d	2g
.	4d	4e	.
[1A	2.c	2f	[1a
.	.	2e	.
.	4d	.	.
=61	=61	=61	=61
1A]	1e	2r	1a]
.	.	2c	.
2r	1A	2c	2r
2F	.	2c	2a
=62	=62	=62	=62
2D	2r	2d	2a
2.F	2A	2c	2a
.	2A	1f	2cc
4E	.	.	.
2D	2A	.	2dd
=63	=63	=63	=63
2C	2c	1e	2.ee
2c	2A	.	.
.	.	.	4dd
2A	2.c	2r	2ff
[2c	.	4A	[2ee
.	4d	4B	.
=64	=64	=64	=64
4c]	2.e	4c	4ee]
4B	.	4d	4dd
2A	.	4e	2cc
.	4d	4f	.
2G	2e	2g	2b
2F	[2f	2c	[2a
=65	=65	=65	=65
1B-i	2f]	4d	2a]
.	.	4e	.
.	4e	4f	1dd
.	4d	4g	.
1A	1e	[1a	.
.	.	.	2cc#i
=66	=66	=66	=66
0D	[0d	1a]	0dd
.	.	2r	.
.	.	2d	.
=67	=67	=67	=67
0r	0d]	2.f	2r
.	.	.	2dd
.	.	4g	.
.	.	2a	2ff
.	.	2b	2ff
=68	=68	=68	=68
0r	1r	2.cc	2.ee
.	.	4b	4dd
.	2r	4a	2cc
.	.	4g	.
.	2d	[2b	[2dd
=69	=69	=69	=69
0r	2f	4b]	4dd]
.	.	4a	4cc
.	2f	1a	4b
.	.	.	4a
.	2.e	.	1b
.	.	2g#i	.
.	4d	.	.
=70	=70	=70	=70
2r	2c	2a	2r
2D	2.d	2.f	2a
2F	.	.	2a
.	4c	4e	.
2F	2A	4c	2a
.	.	4d	.
=71	=71	=71	=71
2.E	2B	4e	2.g
.	.	4d	.
.	2.c	2.e	.
4D	.	.	4f
2C	.	.	1e
.	4B	4d	.
[2c	[2A	4c	.
.	.	4B	.
=72	=72	=72	=72
4c]	4A]	1A	2.e
4B	4G	.	.
1A	2F	.	.
.	.	.	4d
.	2E	1B	4e
.	.	.	4f
2G	[2e	.	2g
=73	=73	=73	=73
0A	4e]	1A	2f
.	4d	.	.
.	1d	.	4e
.	.	.	4d
.	.	2r	1e
.	2c#i	2a	.
=74	=74	=74	=74
0r	1d	2a	2d
.	.	2a	2dd
.	2r	2g	2dd
.	2d	2f	2dd
=75	=75	=75	=75
1r	2f	1a	2.cc
.	2f	.	.
.	.	.	4a
2r	2e	2g	2cc
2D	2d	[2f	2b
=76	=76	=76	=76
2F	2.c	2f]	2a
2F	.	4e	2.cc
.	4d	4d	.
2.E	4e	2.g	.
.	4f	.	4b
.	[2e	.	[2b
4D	.	4f	.
=77	=77	=77	=77
2C	2e]	2g	4b]
.	.	.	4a
2D	4d	2f	1a
.	4c	.	.
1E	1B	1e	.
.	.	.	2g#i
=78	=78	=78	=78
1F	1A	2r	[0a
.	.	2c	.
1D	2r	2d	.
.	2d	[2f	.
=79	=79	=79	=79
2r	2c	2f]	1a]
1A	2f	4e	.
.	.	4d	.
.	2e	2c	1r
2A	[2f	[2cc	.
=80	=80	=80	=80
2F	2f]	4cc]	1r
.	.	4b	.
2G	4e	2b	.
.	4d	.	.
2.A	1c	2.a	2r
.	.	.	[2a
4B	.	8gL	.
.	.	8fJ	.
=81	=81	=81	=81
2c	1r	2e	2a]
2.d	.	2f	2a
.	2r	2d	2f
4c	.	.	.
2B	2d	[2g	2g
=82	=82	=82	=82
1A	2c	2g]	1a
.	2f	2f	.
1G	2e	1g	1b
.	[2d	.	.
=83	=83	=83	=83
0r	2d]	2r	4a
.	.	.	4b
.	4c	1a	4cc
.	4B	.	4dd
.	2c	.	2ee
.	[2d	2a	[2ff
=84	=84	=84	=84
0r	4d]	2f	4ff]
.	4c	.	4ee
.	4B	2g	4dd
.	4A	.	4cc
.	1G	2b-i	1dd
.	.	2b-i	.
=85	=85	=85	=85
1r	2A	1.a	2cc
.	2.f	.	2a
2r	.	.	2cc
.	4e	.	.
2G	[2e	2g	[2b
=86	=86	=86	=86
1B	4e]	2f	2b]
.	4d	.	.
.	1d	2d	2g
2.A	.	1e	[1a
.	2c#i	.	.
4G	.	.	.
=87	=87	=87	=87
2F	2d	2r	2a]
2G	2G	2.d	2g
2D	1B-i	.	2f
.	.	4e	.
[2d	.	4f	4e
.	.	4d	4d
=88	=88	=88	=88
2d]	2.A	2e	1a
2c#i	.	1a	.
.	4G	.	.
[1d	2F	.	2r
.	2G	2g	2dd
=89	=89	=89	=89
1d]	1D	4f	1ff
.	.	4g	.
.	.	4a	.
.	.	4b	.
2r	1r	2cc	2.ee
2A	.	4c	.
.	.	4d	4dd
=90	=90	=90	=90
2A	2r	4e	2cc
.	.	4f	.
2G	2d	2g	2b
2F	1f	2c	4a
.	.	.	4b
4E	.	[2cc	4cc
4D	.	.	4dd
=91	=91	=91	=91
2C	2e	4cc]	4ee
.	.	4b	4dd
2D	2d	2.a	2.ff
2A	2c	.	.
.	.	4g	4ee
2B	2d	4f	2dd
.	.	4e	.
=92	=92	=92	=92
2A	0e	2a	2cc
2G	.	2b	1dd
1A	.	1a	.
.	.	.	2cc#i
=93	=93	=93	=93
0D	1d	2r	[0ddl
.	.	2f	.
.	2r	[1b-X	.
.	2d	.	.
=94	=94	=94	=94
1D	2f	2b-]	0dd_
.	2f	2a	.
[1G	2e	2g	.
.	[2d	[2b-i	.
=95	=95	=95	=95
2G]	4d]	4b-]	0dd_
.	4c	4a	.
2F	4B	1a	.
.	4A	.	.
1G	2B	.	.
.	2B	2g	.
=96	=96	=96	=96
00Dl	00Al	00al	00dd]
==	==	==	==
*-	*-	*-	*-
!!!system-decoration: [*]
!!!RDF**kern: i = editorial accidental
!!!RDF**kern: l = terminal long
!!!ENC: Benjamin Ory
!!!END: 2021/1/9
!!!EED: Benjamin Ory
!!!EEV: 2021/05/02
!!!YEC: Copyright 2021 Benjamin Ory, All Rights Reserved
!!!ONB: Translated from MusicXML on 2021/05/02
